X:1
T:Musical Offering Canon a 2, Per tonos (A = 415 Hz)
T:BWV 1079
T:J. S. Bach
%%score 1 { 2 | 3 }
L:1/8
M:4/4
K:D
V:1 alto nm="Harp"
V:2 tenor nm="Harp"
V:3 bass 
V:1
 B,3 C D^DE^E | F4 G2- G/E/=C/B,/ | ^A,2 z4 F2- | F2 ^E4 =E2- | E2 ^D4 =D2- | D2 C2- C^B,A,^G, | %6
 C2 z4 F2- | F2 E2 ^D4 | C3 ^D E^EFG | ^G4 A2- A/F/D/C/ | ^B,2 z4 ^G2- | G2 =G4 F2- | F2 ^E4 =E2- | %13
 E2 ^D2- D=DB,^A, | ^D2 z4 ^G2- | G2 F2 ^E4 | ^D3 ^E FG^GA | ^A4 B2- B/^G/E/^D/ | D2 z4 ^A2- | %19
 A2 =A4 ^G2- | G2 =G4 F2- | F2 ^E2- E=EC^B, | ^E2 z4 ^A2- | A2 ^G2 =G4 | ^E2- EG ^GA^AB | %25
 ^B4 c2- c/^A/F/^E/ | E2 z4 =c2- | c2 B4 ^A2- | A2 =A4 ^G2- | G2 =G3 F^D=D | G2 z4 ^B2- | %31
 B2 ^A2 =A4 | G3 A ^AB^Bc | d4 ^d2- d/^B/^G/=G/ | F2 z4 d2- | d2 c4 ^B2- | B2 =B4 ^A2- | %37
 A2 =A3 ^G^E=E | A2 z4 d2- | d2 =c2 B4 | A3 B ^Bcd^d | e4 ^e2- e/d/^A/=A/ | ^G2 z4 e2- | %43
 e2 ^d4 =d2- | d2 c4 ^B2- | B2 =B2- B^AGF | B2 z4 e2- | e2 d2 c4 | B8 |] %49
V:2
 z8 | z/ F,/A,/C/ F4 E^D | E2- E/^A,/^G,/A,/ B,/F,/B,/C/ D2- | DDCB, A,2- A,/B,/A,/^G,/ | %4
 F,G, ^G,2 z A,G,F, | ^E,F,/E,/ F,/^G,/F,/=E,/ ^D,/C,/D,/E,/ F,/D,/E,/F,/ | %6
 ^G, F2 E/^D/ EC ^A,D/C/ | ^B,C/^D/ EG, ^G,2 z2 | z ^G,- G,/B,/^A,/G,/ =G,/^G,/A,/B,/ C/E/^D/C/ | %9
 B,/^G,/B,/^D/ ^G4 F^E | F2- F/^B,/^A,/B,/ C/^G,/C/^D/ E2- | EE^DC B,2- B,/C/B,/^A,/ | %12
 ^G,A, ^A,2 z B,A,G, | G,^G,/=G,/ ^G,/^A,/G,/F,/ ^E,/^D,/E,/F,/ G,/E,/F,/G,/ | %14
 ^A, ^G2 F/^E/ F^D ^B,E/D/ | D^D/^E/ FA, ^A,2 z2 | z ^A,- A,/C/^B,/A,/ =A,/^A,/B,/C/ ^D/F/^E/D/ | %17
 C/^A,/C/^E/ ^A4 ^G=G | ^G2- G/D/^B,/D/ ^D/^A,/D/^E/ F2- | FF^E^D C2- C/D/C/^B,/ | %20
 ^A,B, ^B,2 z CB,A, | A,^A,/=A,/ ^A,/^B,/A,/^G,/ =G,/^E,/G,/^G,/ A,/=G,/^G,/A,/ | %22
 ^B, ^A2 ^G/=G/ ^G^E D=G/E/ | E^E/G/ ^GB, ^B,2 z2 | z ^B,- B,/^D/=D/B,/ =B,/^B,/D/^D/ ^E/^G/=G/E/ | %25
 ^D/^B,/D/G/ ^B4 ^A=A | ^A2- A/E/D/E/ ^E/^B,/E/G/ ^G2- | G^G=G^E ^D2- D/E/D/=D/ | %28
 ^B,C D2 z ^D=DB, | B,^B,/=B,/ ^B,/D/B,/^A,/ =A,/G,/A,/^A,/ B,/=A,/^A,/B,/ | %30
 D ^B2 ^A/=A/ ^AG E=A/G/ | FG/A/ ^AC D2 z2 | z D>^E=E/D/ C/D/E/^E/ G/^A/=A/G/ | ^E/D/E/A/ d4 ^B=B | %34
 ^B2- B/F/E/F/ G/D/G/A/ ^A2- | A^A=AG ^E2- E/G/E/=E/ | D^D E2 z ^E=E=D | %37
 CD/C/ D/E/D/^B,/ =B,/A,/B,/^B,/ D/=B,/^B,/D/ | E d2 ^B/=B/ ^BA F=B/A/ | ^GA/B/ ^B^D E2 z2 | %40
 z E- E/G/F/E/ ^D/E/F/G/ A/^B/=B/A/ | G/E/G/B/ e4 dc | d2- d/^G/F/G/ A/E/A/B/ ^B2- | %43
 B^B=BA G2- G/A/G/F/ | E^E F2 z GF=E | ^DE/D/ E/F/E/=D/ C/B,/C/D/ E/C/D/E/ | F e2 d/c/ dB ^Gc/B/ | %47
 ^AB/c/ d^E F2 z2 | B,8 |] %49
V:3
 z/ B,,/D,/F,/ B,4 A,^G, | A,2- A,/^D,/C,/D,/ E,/B,,/E,/F,/ G,2- | G,G,F,E, D,2- D,/E,/D,/C,/ | %3
 B,,=C, ^C,2 z D,C,B,, | ^A,,B,,/A,,/ B,,/C,/B,,/=A,,/ ^G,,/F,,/G,,/A,,/ B,,/G,,/A,,/B,,/ | %5
 C, B,2 A,/^G,/ A,F, _E,_A,/_G,/ | =F,^F,/^G,/ A,=C, ^C,2 z2 | %7
 z C,>E,^D,/C,/ =C,/^C,/D,/E,/ F,/A,/^G,/F,/ | E,/C,/E,/^G,/ C4 B,^A, | %9
 B,2- B,/=F,/^D,/F,/ ^F,/C,/F,/^G,/ A,2- | A,A,^G,F, E,2- E,/F,/E,/^D,/ | C,D, ^D,2 z E,D,C, | %12
 =C,^C,/=C,/ ^C,/^D,/C,/B,,/ ^A,,/^G,,/A,,/B,,/ C,/A,,/B,,/C,/ | ^D, C2 B,/^A,/ B,^G, =F,A,/G,/ | %14
 G,^G,/^A,/ B,D, ^D,2 z2 | z ^D,- D,/F,/=F,/D,/ =D,/^D,/F,/^F,/ ^G,/B,/^A,/G,/ | %16
 F,/^D,/F,/^A,/ ^D4 C=C | C2- C/G,/=F,/G,/ ^G,/^D,/G,/^A,/ B,2- | B,B,^A,^G, F,2- F,/G,/F,/=F,/ | %19
 ^D,E, =F,2 z ^F,=F,D, | D,^D,/=D,/ ^D,/=F,/D,/C,/ =C,/^A,,/C,/^C,/ D,/=C,/^C,/D,/ | %21
 =F, _E2 C/=C/ ^C^A, G,=C/A,/ | A,^A,/=C/ ^CE, =F,2 z2 | %23
 z =F,- F,/^G,/=G,/F,/ E,/F,/G,/^G,/ ^A,/C/=C/A,/ | _A,/=F,/A,/=C/ =F4 ^D=D | %25
 ^D2- D/A,/G,/A,/ ^A,/=F,/A,/=C/ ^C2- | CC=C^A, ^G,2- G,/A,/G,/=G,/ | =F,^F, G,2 z ^G,=G,=F, | %28
 E,=F,/E,/ F,/G,/F,/^D,/ =D,/=C,/D,/^D,/ F,/=D,/^D,/F,/ | G, =F2 ^D/=D/ ^D=C A,=D/C/ | %30
 B,=C/D/ ^DF, G,2 z2 | z G,- G,/^A,/=A,/G,/ F,/G,/A,/^A,/ =C/^D/=D/C/ | ^A,/G,/A,/D/ G4 =FE | %33
 =F2- F/B,/A,/B,/ =C/G,/C/D/ ^D2- | D^D=D=C ^A,2- A,/C/A,/=A,/ | G,^G, A,2 z ^A,=A,=G, | %36
 F,G,/F,/ G,/A,/G,/=F,/ E,/D,/E,/F,/ G,/E,/F,/G,/ | A, G2 =F/E/ FD B,E/D/ | CD/E/ =F^G, A,2 z2 | %39
 z A,- A,/=C/B,/A,/ ^G,/A,/B,/C/ D/=F/E/D/ | =C/A,/C/E/ A4 GF | G2- G/C/B,/C/ D/A,/D/E/ =F2- | %42
 F=FED =C2- C/D/C/B,/ | A,^A, B,2 z =CB,=A, | ^G,A,/G,/ A,/B,/A,/=G,/ F,/E,/F,/G,/ A,/F,/G,/A,/ | %45
 B, A2 G/F/ GE CF/E/ | ^DE/F/ G^A, B,2 z2 | z B,>DC/B,/ ^A,/B,/C/D/ E/G/F/E/ | ^D8 |] %49

